!!!COM:	Bach, Johann Sebastian
!!!CDT:	1685/02/21/-1750/07/28/
!!!OTL@@DE:	Ist Gott mein Schild und Helfersmann
!!!SCT:	BWV 85/6
!!!PC#:	122
!!!AGN:	chorale
**kern	**kern	**kern	**kern
*ICvox	*ICvox	*ICvox	*ICvox
*Ibass	*Itenor	*Ialto	*Isoprn
*I"Bass	*I"Tenor	*I"Alto	*I"Soprano
*clefF4	*clefGv2	*clefG2	*clefG2
*k[b-e-]	*k[b-e-]	*k[b-e-]	*k[b-e-]
*c:dor	*c:dor	*c:dor	*c:dor
*M4/4	*M4/4	*M4/4	*M4/4
*met(c)	*met(c)	*met(c)	*met(c)
*MM100	*MM100	*MM100	*MM100
4C	4c	8e-L	4g
.	.	8fJ	.
=1	=1	=1	=1
4E-	4c	4g	4cc
4G	4d	4g	4b
4c	4e-	4g	4cc
4C	4G	8fL	8ddL
.	.	8e-J	8ee-J
=2	=2	=2	=2
4D	4F	4f	4.b-X
4BB-	4B-	4d	.
.	.	.	8a-
4E-;	4B-;	4e-;	4g;
4E-	4B-	4e-	4g
=3	=3	=3	=3
4E-	8A-L	4c	4f
.	8GJ	.	.
4D	8FL	8B-L	4b-
.	8B-J	8fJ	.
4E-	8B-L	8e-L	4g
.	8gJ	8dJ	.
4A-	8fL	8cL	4cc
.	8e-J	8gJ	.
=4	=4	=4	=4
4D	4d	8fL	4.b
.	.	8dJ	.
4C	8GL	8e-L	.
.	8AnXJ	16gL	8cc
.	.	16f#JJ	.
4G;	4B;	4g;	4dd;
4c	8cL	4g	4ee-
.	8B-J	.	.
=5	=5	=5	=5
8FL	8A-L	4.fnX	8ddL
8E-J	8FJ	.	8ccJ
8DL	4B-	.	8b-XL
8BB-J	.	8d	8a-J
8E-L	4B-	4e-	4g
8DJ	.	.	.
8CL	8A-L	4e-	8a-L
8BB-J	8GJ	.	8b-J
=6	=6	=6	=6
4AA-	4c	4e-	2f
4BB-	8B-L	4d	.
.	8A-XJ	.	.
4E-;	4G;	4B-;	4e-;
4E-	4B-	4g	4ee-
=7	=7	=7	=7
8FL	8A-L	4f	4dd
8GJ	8B-J	.	.
4A-	8cL	8e-L	8ccL
.	8dJ	8fJ	8b-J
4G	4e-	4g	4b-
8FL	4A-	8a-L	4cc
8E-J	.	8gJ	.
=8	=8	=8	=8
8DL	8B-L	8fL	4b-
8CJ	8cJ	8e-J	.
4BB-	4d	8fL	8a-L
.	.	8dJ	8gJ
4E-;	4B-;	4e-;	4g;
8B-L	4B-	4d	4f
8A-J	.	.	.
=9	=9	=9	=9
4G	4B-	4e	4.b-
2F	4c	4f	.
.	.	.	8a-
.	4B	4d	4g
4E-	4c	4g	8ee-L
.	.	.	8ddJ
=10	=10	=10	=10
4D	4d	8fL	4.b
.	.	8dJ	.
4C	8GL	8e-L	.
.	8AnXJ	16gL	8cc
.	.	16f#JJ	.
4G;	4B;	4g;	4dd;
8cL	4c	4g	4ee-
8B-J	.	.	.
=11	=11	=11	=11
8A-L	4c	8fnXL	8ffL
8GJ	.	8gJ	8ee-J
8FL	4f	4a-	8ddL
8E-J	.	.	8ccJ
4D	4f	4a-	4b
8E-L	8e-L	8gL	8ccL
8FJ	8cJ	8a-J	8ddJ
=12	=12	=12	=12
4G	8cL	4g	4.dd
.	8AnXJ	.	.
4GG	4B	8fL	.
.	.	8e-J	8cc
4AA-;	4c;	4e-;	4cc;
8A-XL	4c	4a-	4ee-
8GJ	.	.	.
=13	=13	=13	=13
4F	8cL	4a-	8ee-L
.	8fJ	.	8ddJ
4F	8e-L	8a-L	8ccL
.	8dJ	8gJ	8bJ
8E-L	8cL	4g	4gg
8DJ	8BJ	.	.
8E-L	8cL	8gL	8ccL
8FJ	8dJ	8fJ	8aJ
=14	=14	=14	=14
4G	4G	8dL	4.b
.	.	16e-L	.
.	.	16fJJ	.
4GG	4d	4g	.
.	.	.	8cc
4C;	4e;	4g;	4cc;
==	==	==	==
*-	*-	*-	*-
!!!hum2abc: -Q ''
!!!title: @{PC#}. @{OTL@@DE}
!!!YOR1: 371 vierstimmige Choralges&auml;nge von Johann Sebastian Bach, 
!!!YOR2: 4th ed. by Alfred D&ouml;rffel (Leipzig: Breitkopf und H&auml;rtel, 
!!!YOR2: c.1875). 178 pp. Plate "V.A.10".  reprint: J.S. Bach, 371 Four-Part 
!!!YOR4: Chorales (New York: Associated Music Publishers, Inc., c.1940).
!!!SMS: B&H, 4th ed, Alfred D&ouml;rffel, c.1875, plate V.A.10
!!!EED:  Craig Stuart Sapp
!!!EEV:  2009/05/22
